X:990
T:Midsummer's Night
R:reel
C:Vincent Broderick (1920-2008)
D:Dervish
Z:id:hn-reel-990
M:C|
L:1/8
K:G
egdB ~A3G | EG~G2 EGDG | e2dB A2 (3Bcd | egfa gedg | 
egdB ~A3G | EG~G2 EGDE | ~G3A BA (3Bcd |1 egdB BABd :|2 egdB cAFA ||
|: ~G3A BG (3Bcd | ~g3a baga | bage dG (3Bcd | egdg edBA |
~G3A BG (3Bcd | ~g3a baga | bage dG (3Bcd |1 egfg edBA :|2 egfg edBd ||
P:variations
|: eBdB ABAG | EG~G2 EGDG | eBdB A2 (3Bcd | eaag egdg | 
eBdB ABAG | EG~G2 EGDE | GFGA BA (3Bcd |1 eBdB BAA2 :|2 e2dB cAFA ||
|: GFGA BG (3Bcd | ~g3a baga | bage dG (3Bcd | egdg edBA |
~G3A dGBd | ~g3a baga | bage dG (3Bcd |1 e2ge edBA :|2 e2ge edBd ||
P:more variations
|: e2dB ~A3G | EG~G2 EGDd | (3efg dB A2 (3Bcd | eaaf gedg | 
(3efg dB ~A3G | EG~G2 EGDE | GEDE GA (3Bcd |1 egdB BAAd :|2 egdB cAFA ||
|: G3A dGBd | ~g3a baga | bage dG (3Bcd | ~e3g edBA |
~G3A BG (3Bcd | ~g3a baga | bage dG (3Bcd |1 ~e3g edBA :|2 ~e3g edBd ||

